X: 2339
T: Bag Of Spuds, The
R: reel
M: 4/4
K: Adorian
A2eA BAez|ABcd efdB|GzBG dGBA|GBBA GBdB|
AzeA BAez|ABcd efdB|GzBd egge|1 dBGA BAdB:|2 dBGA B~a3||
|:azeg ageg|azab agef|(3 gfe dc BGBd|gfga (3bag eg|
[1 azeg ageg|agbg ageg|dzde ~g3e|dBGA B~a3:|
[2 ed (3efg az ab|baag aged|Bdef gzge|dBGA BAdB||

